X:75
T:Cottage Maid. JJo.075
S:J.Jones MS,1801,N.Shrops.
A:N Shropshire
Z:Neil Brookes
M:6/8
L:1/8
Q:3/8=120
K:C
e3efd|g3e2e|e3efd|c3G2z|!
a2c’ c’ba|g3e2c|d2e feg|e3d2z|!
e3efd|g3e2e|e3efd|c3G2z|!
a2b c’ba|g3e2c|d2e {g}fed|cGE Czg|!
d2e fed|e3g2e|d2e fed|c3zg|!
d2e fed|e3 gec|Bdg cBA|G6|!
e3efd|g3e2z|e3efd|c3G2z|!
a2b c’ba|g3g2e|d2e {g}fed|c3c3|]

